svgs/regular/castle.svg

<svg xmlns="http://www.w3.org/2000/svg" viewBox="0 0 640 512"><!--! Font Awesome Pro 6.0.0-alpha3 by @fontawesome - https://fontawesome.com License - https://fontawesome.com/license (Commercial License) --><path d="M616 160c-13.25 0-24 10.74-24 24V224L512 224V24C512 10.74 501.3 0 488 0S464 10.74 464 24V64l-64 .0097V24C400 10.74 389.3 0 376 0S352 10.74 352 24V64H288V24C288 10.74 277.3 0 264 0S240 10.74 240 24v40.01L176 64V24C176 10.74 165.3 0 152 0S128 10.74 128 24v200L48 224V184C48 170.7 37.25 160 24 160S0 170.7 0 184V448c0 35.35 28.65 64 64 64l223.9 .0234c.082 0-.082 0 0 0h64.23c.082 0-.082 0 0 0L576 512c35.35 0 64-28.65 64-64V184C640 170.7 629.3 160 616 160zM176 112h288V224h-288V112zM592 448c0 8.836-7.164 16-16 16h-192v-79.99c0-35.35-28.65-64-64-64s-64 28.65-64 64V464H64c-8.836 0-16-7.164-16-16V272h544V448z"/></svg>

<svg xmlns="http://www.w3.org/2000/svg" viewBox="0 0 640 512"><!--! Font Awesome Pro 6.4.2 by @fontawesome - https://fontawesome.com License - https://fontawesome.com/license (Commercial License) Copyright 2023 Fonticons, Inc. --><path d="M176 24c0-13.3-10.7-24-24-24s-24 10.7-24 24V224H48V184c0-13.3-10.7-24-24-24s-24 10.7-24 24V440c0 39.8 32.2 72 72 72H568c39.8 0 72-32.2 72-72V184c0-13.3-10.7-24-24-24s-24 10.7-24 24v40H512V24c0-13.3-10.7-24-24-24s-24 10.7-24 24V64H400V24c0-13.3-10.7-24-24-24s-24 10.7-24 24V64H288V24c0-13.3-10.7-24-24-24s-24 10.7-24 24V64H176V24zm0 88H464V224H176V112zM48 272H592V440c0 13.3-10.7 24-24 24H384V384c0-35.3-28.7-64-64-64s-64 28.7-64 64v80H72c-13.3 0-24-10.7-24-24V272z"/></svg>
